assets/img/icon-heart-white.svg

<svg width="19" height="17" viewBox="0 0 19 17" fill="none" xmlns="http://www.w3.org/2000/svg">
<path d="M9.66187 5.0002H9.9335L10.0813 4.77232C10.6957 3.8253 11.3186 3.16391 11.9406 2.75569C12.5581 2.35033 13.2258 2.1502 13.955 2.1502C14.871 2.1502 15.605 2.44063 16.1937 3.00969C16.7813 3.57775 17.0757 4.27928 17.0757 5.1502C17.0757 5.64417 16.9707 6.15439 16.7516 6.68402C16.5363 7.2043 16.1383 7.83212 15.5336 8.571C14.9297 9.30877 14.0999 10.1897 13.0385 11.2157C12.0493 12.1719 10.8041 13.3109 9.30162 14.6332C7.79761 13.2956 6.55065 12.152 5.55965 11.2018C4.49866 10.1844 3.66934 9.30809 3.06604 8.571C2.46127 7.83212 2.06331 7.2043 1.84802 6.68402C1.62886 6.15439 1.52394 5.64417 1.52394 5.1502C1.52394 4.28131 1.82109 3.58042 2.41663 3.01184C3.01652 2.4391 3.74837 2.1502 4.64463 2.1502C5.3757 2.1502 6.0393 2.34724 6.64727 2.74394C7.25916 3.1432 7.88645 3.80796 8.51951 4.77421L8.66757 5.0002H8.93774H9.66187Z" fill="#FFFEFE" stroke="white"/>
</svg>

<svg width="19" height="17" fill="none" xmlns="http://www.w3.org/2000/svg"><path d="M9.662 5h.271l.148-.228c.615-.947 1.238-1.608 1.86-2.016a3.587 3.587 0 012.014-.606c.916 0 1.65.29 2.239.86.587.568.882 1.27.882 2.14a3.99 3.99 0 01-.324 1.534c-.216.52-.614 1.148-1.218 1.887-.604.738-1.434 1.619-2.495 2.645-.99.956-2.235 2.095-3.737 3.417a139.16 139.16 0 01-3.742-3.431C4.499 10.184 3.67 9.308 3.066 8.57c-.605-.739-1.003-1.367-1.218-1.887a3.99 3.99 0 01-.324-1.534c0-.869.297-1.57.893-2.138.6-.573 1.331-.862 2.228-.862a3.58 3.58 0 012.002.594c.612.4 1.24 1.064 1.873 2.03L8.668 5h.994z" fill="#FFFEFE" stroke="#fff"/></svg>
